tools/download-figma-icons/icons/outlined-medium/snowflake.svg

<svg width="24" height="24" viewBox="0 0 24 24" fill="none" xmlns="http://www.w3.org/2000/svg">
<path d="M22.626 13.98C22.5469 13.7984 22.3992 13.6556 22.2151 13.5825C22.0311 13.5094 21.8256 13.5121 21.6435 13.59L18.5385 14.91L15.936 13.41V10.59L18.5385 9.09L21.6435 10.41C21.7354 10.4513 21.8353 10.4718 21.936 10.47C22.0824 10.4705 22.2257 10.4282 22.3483 10.3482C22.4709 10.2683 22.5674 10.1542 22.626 10.02C22.6703 9.92744 22.6951 9.82678 22.699 9.72424C22.7028 9.6217 22.6856 9.51946 22.6483 9.42385C22.6111 9.32824 22.5546 9.24129 22.4824 9.16839C22.4101 9.09548 22.3237 9.03817 22.2285 9L20.166 8.1225L22.1085 6.9975C22.2815 6.89804 22.408 6.73392 22.46 6.54122C22.5121 6.34853 22.4855 6.14305 22.386 5.97C22.2865 5.79695 22.1224 5.67049 21.9297 5.61845C21.737 5.56641 21.5315 5.59304 21.3585 5.6925L19.416 6.8175L19.686 4.5675C19.6978 4.46901 19.6901 4.36915 19.6633 4.27364C19.6366 4.17812 19.5913 4.08881 19.53 4.01081C19.4687 3.93281 19.3926 3.86764 19.3062 3.81903C19.2197 3.77042 19.1245 3.73932 19.026 3.7275C18.9275 3.71568 18.8276 3.72338 18.7321 3.75015C18.6366 3.77692 18.5473 3.82224 18.4693 3.88353C18.3913 3.94482 18.3261 4.02087 18.2775 4.10734C18.2289 4.19381 18.1978 4.28901 18.186 4.3875L17.781 7.7325L15.2085 9.2325L12.7485 7.8225V4.875L15.4485 2.85C15.6076 2.73065 15.7128 2.55298 15.741 2.35607C15.7691 2.15915 15.7178 1.95913 15.5985 1.8C15.4791 1.64087 15.3015 1.53567 15.1046 1.50754C14.9076 1.47941 14.7076 1.53065 14.5485 1.65L12.7485 3V0.75C12.7485 0.551088 12.6695 0.360322 12.5288 0.21967C12.3882 0.0790176 12.1974 0 11.9985 0C11.7996 0 11.6088 0.0790176 11.4682 0.21967C11.3275 0.360322 11.2485 0.551088 11.2485 0.75V3L9.4485 1.65C9.3697 1.59091 9.28004 1.54791 9.18463 1.52346C9.08922 1.49902 8.98993 1.49361 8.89243 1.50754C8.79493 1.52147 8.70112 1.55446 8.61637 1.60464C8.53163 1.65482 8.45759 1.72121 8.39849 1.8C8.3394 1.87879 8.2964 1.96845 8.27196 2.06386C8.24752 2.15927 8.2421 2.25856 8.25603 2.35607C8.26996 2.45357 8.30296 2.54737 8.35314 2.63212C8.40332 2.71687 8.4697 2.79091 8.54849 2.85L11.2485 4.875V7.8225L8.781 9.2775L6.20849 7.7775L5.80349 4.44C5.79168 4.34151 5.76057 4.24631 5.71196 4.15984C5.66335 4.07337 5.59819 3.99732 5.52019 3.93603C5.44218 3.87474 5.35288 3.82942 5.25736 3.80265C5.16184 3.77588 5.06199 3.76818 4.96349 3.78C4.865 3.79182 4.7698 3.82292 4.68333 3.87153C4.59686 3.92014 4.52081 3.98531 4.45953 4.06331C4.39824 4.14131 4.35292 4.23062 4.32614 4.32614C4.29937 4.42165 4.29168 4.52151 4.30349 4.62L4.57349 6.87L2.63849 5.7225C2.46544 5.62304 2.25997 5.59641 2.06727 5.64845C1.87458 5.70049 1.71045 5.82695 1.61099 6C1.51154 6.17305 1.4849 6.37853 1.53694 6.57122C1.58898 6.76392 1.71544 6.92804 1.88849 7.0275L3.83099 8.1525L1.76849 9C1.67701 9.03844 1.59407 9.09464 1.52447 9.16536C1.45487 9.23608 1.39999 9.31991 1.36302 9.412C1.32605 9.50408 1.30771 9.60258 1.30908 9.7018C1.31045 9.80101 1.3315 9.89897 1.37099 9.99C1.42955 10.1242 1.52607 10.2383 1.64868 10.3182C1.77129 10.3982 1.91462 10.4405 2.06099 10.44C2.16173 10.4418 2.26162 10.4213 2.35349 10.38L5.4585 9.06L8.061 10.56V13.38L5.4585 14.88L2.35349 13.59C2.17141 13.5121 1.96592 13.5094 1.78186 13.5825C1.59779 13.6556 1.4501 13.7984 1.37099 13.98C1.32669 14.0726 1.30185 14.1732 1.29801 14.2758C1.29417 14.3783 1.31142 14.4805 1.34867 14.5762C1.38593 14.6718 1.44242 14.7587 1.51463 14.8316C1.58684 14.9045 1.67324 14.9618 1.76849 15L3.83099 15.8775L1.88849 17.0025C1.71544 17.102 1.58898 17.2661 1.53694 17.4588C1.4849 17.6515 1.51154 17.8569 1.61099 18.03C1.71045 18.2031 1.87458 18.3295 2.06727 18.3816C2.25997 18.4336 2.46544 18.407 2.63849 18.3075L4.58099 17.1825L4.31099 19.4325C4.292 19.6281 4.3505 19.8233 4.47393 19.9761C4.59735 20.129 4.77583 20.2273 4.97099 20.25H5.06099C5.24525 20.2513 5.42355 20.1848 5.56188 20.0631C5.70021 19.9413 5.78889 19.7729 5.81099 19.59L6.21599 16.245L8.7885 14.745L11.2485 16.1775V19.125L8.54849 21.15C8.38936 21.2693 8.28416 21.447 8.25603 21.6439C8.2279 21.8408 8.27915 22.0409 8.39849 22.2C8.51784 22.3591 8.69552 22.4643 8.89243 22.4925C9.08934 22.5206 9.28937 22.4693 9.4485 22.35L11.2485 21V23.25C11.2485 23.4489 11.3275 23.6397 11.4682 23.7803C11.6088 23.921 11.7996 24 11.9985 24C12.1974 24 12.3882 23.921 12.5288 23.7803C12.6695 23.6397 12.7485 23.4489 12.7485 23.25V21L14.5485 22.35C14.6783 22.4474 14.8362 22.5 14.9985 22.5C15.1149 22.5 15.2298 22.4729 15.3339 22.4208C15.438 22.3687 15.5286 22.2931 15.5985 22.2C15.6576 22.1212 15.7006 22.0315 15.725 21.9361C15.7495 21.8407 15.7549 21.7414 15.741 21.6439C15.727 21.5464 15.694 21.4526 15.6439 21.3679C15.5937 21.2831 15.5273 21.2091 15.4485 21.15L12.7485 19.125V16.1775L15.216 14.7225L17.7885 16.2225L18.1935 19.5675C18.2156 19.7504 18.3043 19.9188 18.4426 20.0406C18.5809 20.1623 18.7592 20.2288 18.9435 20.2275H19.0335C19.1323 20.2164 19.2278 20.1857 19.3147 20.1373C19.4015 20.0889 19.4778 20.0237 19.5392 19.9456C19.6007 19.8674 19.6459 19.7778 19.6724 19.682C19.6989 19.5862 19.706 19.4861 19.6935 19.3875L19.4235 17.1375L21.366 18.2625C21.4517 18.3117 21.5462 18.3436 21.6442 18.3563C21.7423 18.369 21.8418 18.3623 21.9372 18.3366C22.0326 18.3108 22.122 18.2665 22.2003 18.2062C22.2786 18.1458 22.3442 18.0707 22.3935 17.985C22.4427 17.8993 22.4746 17.8048 22.4873 17.7068C22.5 17.6087 22.4933 17.5092 22.4675 17.4138C22.4418 17.3184 22.3975 17.229 22.3372 17.1507C22.2768 17.0724 22.2017 17.0067 22.116 16.9575L20.1735 15.8325L22.2285 15C22.3237 14.9618 22.4101 14.9045 22.4824 14.8316C22.5546 14.7587 22.6111 14.6718 22.6483 14.5762C22.6856 14.4805 22.7028 14.3783 22.699 14.2758C22.6951 14.1732 22.6703 14.0726 22.626 13.98ZM14.436 13.4475L11.9985 14.88L9.561 13.4475V10.5525L11.9985 9.12L14.436 10.5525V13.4475Z" fill="black"/>
</svg>

<svg xmlns="http://www.w3.org/2000/svg" width="24" height="24" fill="none" viewBox="0 0 24 24"><path fill="currentColor" d="M22.626 13.98a.75.75 0 0 0-.983-.39l-3.105 1.32-2.602-1.5v-2.82l2.602-1.5 3.105 1.32a.75.75 0 0 0 .983-.39.75.75 0 0 0-.398-1.02l-2.062-.877 1.942-1.125a.753.753 0 0 0-.75-1.306l-1.942 1.125.27-2.25a.755.755 0 0 0-1.5-.18l-.405 3.346-2.572 1.5-2.46-1.41V4.874l2.7-2.025a.75.75 0 0 0-.9-1.2L12.749 3V.75a.75.75 0 1 0-1.5 0V3l-1.8-1.35a.75.75 0 0 0-.9 1.2l2.7 2.025v2.948L8.78 9.277l-2.573-1.5-.405-3.337a.755.755 0 1 0-1.5.18l.27 2.25-1.935-1.147a.753.753 0 1 0-.75 1.305L3.83 8.153 1.768 9a.75.75 0 1 0 .585 1.38l3.105-1.32 2.603 1.5v2.82l-2.602 1.5-3.106-1.29a.75.75 0 0 0-.982.39.75.75 0 0 0 .397 1.02l2.063.877-1.943 1.126a.753.753 0 0 0 .75 1.305l1.943-1.125-.27 2.25a.75.75 0 0 0 .66.817h.09a.75.75 0 0 0 .75-.66l.405-3.345 2.573-1.5 2.46 1.432v2.948l-2.7 2.025a.75.75 0 1 0 .9 1.2l1.8-1.35v2.25a.75.75 0 1 0 1.5 0V21l1.8 1.35a.75.75 0 1 0 .9-1.2l-2.7-2.025v-2.948l2.467-1.454 2.573 1.5.404 3.345a.75.75 0 0 0 .75.66h.09a.75.75 0 0 0 .66-.84l-.27-2.25 1.943 1.124a.753.753 0 0 0 .75-1.305l-1.942-1.125L22.229 15a.75.75 0 0 0 .397-1.02m-8.19-.533-2.437 1.433-2.438-1.433v-2.894l2.438-1.433 2.437 1.433z"/></svg>
